build/img/icon/tick.svg

<svg xmlns="http://www.w3.org/2000/svg" preserveAspectRatio="xMidYMid" width="49" height="40" viewBox="0 0 49 40"><defs><style>.cls-2 { fill: #e8663c; }</style></defs><path d="M48.16 8.396L40.425.664c-.9-.9-2.357-.9-3.256 0L19.048 18.786 11.63 11.37c-.898-.9-2.356-.9-3.255 0L.643 19.1c-.9.898-.9 2.356 0 3.255L9.385 31.1c.08.117.172.228.274.33l7.732 7.733c.43.432 1.017.674 1.627.674.61 0 1.196-.242 1.627-.674l27.512-27.51c.43-.433.673-1.018.673-1.63 0-.61-.243-1.195-.674-1.627z" id="path-1" class="cls-2" fill-rule="evenodd"/></svg>

<svg xmlns="http://www.w3.org/2000/svg" xmlns:xlink="http://www.w3.org/1999/xlink" preserveAspectRatio="xMidYMid" width="49" height="40" viewBox="0 0 49 40">
  <defs>
    <style>

      .cls-2 {
        fill: #e8663c;
      }
    </style>
  </defs>
  <path d="M48.159,8.396 C48.159,8.396 40.426,0.664 40.426,0.664 C39.527,-0.235 38.069,-0.235 37.170,0.664 C37.170,0.664 19.048,18.786 19.048,18.786 C19.048,18.786 11.631,11.369 11.631,11.369 C10.732,10.470 9.274,10.470 8.375,11.369 C8.375,11.369 0.643,19.102 0.643,19.102 C-0.256,20.000 -0.256,21.458 0.643,22.357 C0.643,22.357 9.385,31.100 9.385,31.100 C9.465,31.217 9.557,31.328 9.659,31.431 C9.659,31.431 17.392,39.163 17.392,39.163 C17.823,39.595 18.409,39.837 19.019,39.837 C19.630,39.837 20.216,39.595 20.647,39.163 C20.647,39.163 48.159,11.652 48.159,11.652 C48.590,11.220 48.833,10.635 48.833,10.024 C48.833,9.413 48.590,8.828 48.159,8.396 Z" id="path-1" class="cls-2" fill-rule="evenodd"/>
</svg>
